img/DFAvsNFA_example_1.svg

<svg xmlns="http://www.w3.org/2000/svg" width="411" height="270">
    <g fill="none" fill-rule="evenodd" transform="translate(2)">
        <g stroke="#000" stroke-linecap="round" stroke-width="4">
            <path d="M270.1 177.2c16.1-23.7 47.8-33.8 74.3-21.3 29.4 13.9 42 49 28.1 78.4-13.9 29.4-49 42-78.4 28.1-4.2-2-8.1-4.5-11.7-7.3"/>
            <path stroke-linejoin="round" d="M295.8 254.8l-14.1-.3 5.7 13"/>
        </g>
        <circle cx="266.6" cy="211.9" r="28.7" stroke="#000" stroke-width="4"/>
        <circle cx="266.6" cy="211.9" r="34.9" stroke="#000" stroke-width="4"/>
        <circle cx="113.3" cy="211.9" r="28.7" stroke="#000" stroke-width="4"/>
        <circle cx="113.3" cy="211.9" r="34.9" stroke="#000" stroke-width="4"/>
        <path stroke="#000" stroke-linecap="round" stroke-linejoin="round" stroke-width="4" d="M246.8 112.8l-13.6 6.4 11.5 9.7"/>
        <circle cx="189.9" cy="79.9" r="28.7" stroke="#000" stroke-width="4"/>
        <circle cx="189.9" cy="79.9" r="34.9" stroke="#000" stroke-width="4"/>
        <g stroke="#000" stroke-linecap="round" stroke-linejoin="round" stroke-width="4">
            <path d="M163.3 205.3l-13.2 9.2 13.2 9.2M231.3 214.5h-81.2"/>
        </g>
        <g stroke="#000" stroke-linecap="round" stroke-linejoin="round" stroke-width="4">
            <path d="M130.8 164.9l.9 15.9 14.6-6.4M173.6 112.2l-41.9 68.6"/>
        </g>
        <g stroke="#000" stroke-linecap="round" stroke-linejoin="round" stroke-width="4">
            <path d="M248.3 164.9l-1 15.9-14.5-6.4M205.5 112.2l41.8 68.6"/>
        </g>
        <g stroke="#000" stroke-linecap="round" stroke-width="4">
            <path d="M108.7 177.3c-16.1-23.8-47.8-34-74.4-21.5-29.4 13.9-42 49-28.1 78.4 13.9 29.4 49 42 78.4 28.1 4.2-2 8.1-4.5 11.7-7.3"/>
            <path stroke-linejoin="round" d="M82.9 254.8l14.1-.3-5.7 13"/>
        </g>
        <ellipse cx="269.1" cy="80.8" rx="78.5" ry="44.7"/>
        <path stroke="#000" stroke-linecap="round" stroke-width="4" d="M203.5 47.7c14.4-9.3 35.4-15.2 58.9-15.2 43.3 0 78.5 20 78.5 44.7 0 24.7-35.1 44.7-78.5 44.7-8.6 0-16.8-.8-24.5-2.2"/>
        <path fill="#000" fill-rule="nonzero" d="M128.3 113.4c1.4 1.1 2.3 2.6 2.8 4.4h-3.6c-.4-.9-.9-1.6-1.7-2.2-.8-.5-1.7-.8-2.8-.8-.9 0-1.7.2-2.4.7-.7.4-1.3 1.1-1.7 1.9-.4.8-.6 1.8-.6 2.9 0 1.1.2 2.1.6 2.9.4.8 1 1.5 1.7 1.9.7.4 1.5.7 2.4.7 1.1 0 2-.3 2.8-.8.8-.5 1.3-1.2 1.7-2.2h3.6c-.4 1.9-1.4 3.4-2.8 4.4-1.4 1.1-3.1 1.6-5.3 1.6-1.6 0-3-.4-4.3-1.1-1.2-.7-2.2-1.7-2.9-3.1-.7-1.3-1-2.8-1-4.5 0-1.7.3-3.2 1-4.5.7-1.3 1.6-2.3 2.9-3.1 1.2-.7 2.7-1.1 4.3-1.1 2.2.4 4 .9 5.3 2zM44.3 203c1.4 1.1 2.3 2.6 2.8 4.4h-3.6c-.4-.9-.9-1.6-1.7-2.2-.8-.5-1.7-.8-2.8-.8-.9 0-1.7.2-2.4.7-.7.4-1.3 1.1-1.7 1.9-.4.8-.6 1.8-.6 2.9 0 1.1.2 2.1.6 2.9.4.8 1 1.5 1.7 1.9.7.4 1.5.7 2.4.7 1.1 0 2-.3 2.8-.8.8-.5 1.3-1.2 1.7-2.2h3.6c-.4 1.9-1.4 3.4-2.8 4.4-1.4 1.1-3.1 1.6-5.3 1.6-1.6 0-3-.4-4.3-1.1-1.2-.7-2.2-1.7-2.9-3.1-.7-1.3-1-2.8-1-4.5 0-1.7.3-3.2 1-4.5.7-1.3 1.6-2.3 2.9-3.1 1.2-.7 2.7-1.1 4.3-1.1 2.2.4 4 .9 5.3 2zM193.3 252c1.4 1.1 2.3 2.6 2.8 4.4h-3.6c-.4-.9-.9-1.6-1.7-2.2-.8-.5-1.7-.8-2.8-.8-.9 0-1.7.2-2.4.7-.7.4-1.3 1.1-1.7 1.9-.4.8-.6 1.8-.6 2.9 0 1.1.2 2.1.6 2.9.4.8 1 1.5 1.7 1.9.7.4 1.5.7 2.4.7 1.1 0 2-.3 2.8-.8.8-.5 1.3-1.2 1.7-2.2h3.6c-.4 1.9-1.4 3.4-2.8 4.4-1.4 1.1-3.1 1.6-5.3 1.6-1.6 0-3-.4-4.3-1.1-1.2-.7-2.2-1.7-2.9-3.1-.7-1.3-1-2.8-1-4.5 0-1.7.3-3.2 1-4.5.7-1.3 1.6-2.3 2.9-3.1 1.2-.7 2.7-1.1 4.3-1.1 2.1.4 3.9.9 5.3 2z"/>
        <g stroke="#000" stroke-linecap="round" stroke-linejoin="round" stroke-width="4">
            <path d="M129 72.6l13 9-13 9.1M100.5 81.6H142"/>
        </g>
        <path fill="#000" fill-rule="nonzero" d="M268.9 1.2c.8.5 1.4 1.2 1.7 2.1V.5h3.4v13.3h-3.4V11c-.3.9-.9 1.6-1.7 2.1-.8.5-1.8.8-2.9.8-1.1 0-2.1-.3-3-.8-.9-.5-1.6-1.3-2.1-2.4-.5-1-.8-2.2-.8-3.6s.3-2.6.8-3.6 1.2-1.8 2.1-2.4c.9-.5 1.9-.8 3-.8 1.1.1 2.1.4 2.9.9zm-4.4 3.2c-.6.7-1 1.6-1 2.8 0 1.2.3 2.1 1 2.8.6.7 1.5 1 2.5 1s1.9-.3 2.5-1c.7-.7 1-1.6 1-2.8 0-1.2-.3-2.1-1-2.8-.7-.7-1.5-1-2.5-1s-1.9.3-2.5 1zM274.2 142.6c.9.5 1.6 1.3 2.1 2.4.5 1 .8 2.2.8 3.6s-.3 2.6-.8 3.6-1.2 1.8-2.1 2.4c-.9.6-1.9.8-3 .8s-2.1-.3-2.9-.8c-.8-.5-1.4-1.3-1.7-2.1v2.8h-3.4v-17.8h3.4v7.2c.3-.9.9-1.6 1.7-2.1.8-.5 1.7-.8 2.9-.8 1.1 0 2.1.3 3 .8zm-6.6 3.2c-.7.7-1 1.6-1 2.8 0 1.2.3 2.1 1 2.8.7.7 1.5 1 2.5 1 1.1 0 1.9-.3 2.5-1 .6-.7 1-1.6 1-2.8 0-1.2-.3-2.1-1-2.8-.7-.7-1.5-1-2.5-1s-1.9.3-2.5 1zM406.1 204.2c.9.5 1.6 1.3 2.1 2.4.5 1 .8 2.2.8 3.6s-.3 2.6-.8 3.6-1.2 1.8-2.1 2.4c-.9.6-1.9.8-3 .8s-2.1-.3-2.9-.8c-.8-.5-1.4-1.3-1.7-2.1v2.8h-3.4v-17.8h3.4v7.2c.3-.9.9-1.6 1.7-2.1.8-.5 1.7-.8 2.9-.8 1.1 0 2.1.3 3 .8zm-6.6 3.2c-.7.7-1 1.6-1 2.8 0 1.2.3 2.1 1 2.8.7.7 1.5 1 2.5 1 1.1 0 1.9-.3 2.5-1 .6-.7 1-1.6 1-2.8 0-1.2-.3-2.1-1-2.8-.7-.7-1.5-1-2.5-1s-1.8.3-2.5 1z"/>
    </g>
</svg>

<?xml version="1.0" encoding="UTF-8"?>
<svg width="411px" height="270px" viewBox="0 0 411 270" version="1.1" xmlns="http://www.w3.org/2000/svg" xmlns:xlink="http://www.w3.org/1999/xlink">
    <!-- Generator: Sketch 51.1 (57501) - http://www.bohemiancoding.com/sketch -->
    <title>DFAvsNFA_example_1</title>
    <desc>Created with Sketch.</desc>
    <defs></defs>
    <g id="Page-1" stroke="none" stroke-width="1" fill="none" fill-rule="evenodd">
        <g id="DFAvsNFA_example_1" transform="translate(2.000000, 0.000000)">
            <g id="Group">
                <g transform="translate(270.000000, 150.000000)" id="Shape" stroke="#000000" stroke-linecap="round" stroke-width="4">
                    <path d="M0.1,27.2 C16.2,3.5 47.9,-6.6 74.4,5.9 C103.8,19.8 116.4,54.9 102.5,84.3 C88.6,113.7 53.5,126.3 24.1,112.4 C19.9,110.4 16,107.9 12.4,105.1"></path>
                    <polyline stroke-linejoin="round" points="25.8 104.8 11.7 104.5 17.4 117.5"></polyline>
                </g>
                <circle id="Oval" stroke="#000000" stroke-width="4" cx="266.6" cy="211.9" r="28.7"></circle>
                <circle id="Oval" stroke="#000000" stroke-width="4" cx="266.6" cy="211.9" r="34.9"></circle>
                <circle id="Oval" stroke="#000000" stroke-width="4" cx="113.3" cy="211.9" r="28.7"></circle>
                <circle id="Oval" stroke="#000000" stroke-width="4" cx="113.3" cy="211.9" r="34.9"></circle>
                <polyline id="Shape" stroke="#000000" stroke-width="4" stroke-linecap="round" stroke-linejoin="round" points="246.8 112.8 233.2 119.2 244.7 128.9"></polyline>
                <circle id="Oval" stroke="#000000" stroke-width="4" cx="189.9" cy="79.9" r="28.7"></circle>
                <circle id="Oval" stroke="#000000" stroke-width="4" cx="189.9" cy="79.9" r="34.9"></circle>
                <g transform="translate(150.000000, 205.000000)" id="Shape" stroke="#000000" stroke-linecap="round" stroke-linejoin="round" stroke-width="4">
                    <polyline points="13.3 0.3 0.1 9.5 13.3 18.7"></polyline>
                    <path d="M81.3,9.5 L0.1,9.5"></path>
                </g>
                <g transform="translate(130.000000, 112.000000)" id="Shape" stroke="#000000" stroke-linecap="round" stroke-linejoin="round" stroke-width="4">
                    <polyline points="0.8 52.9 1.7 68.8 16.3 62.4"></polyline>
                    <path d="M43.6,0.2 L1.7,68.8"></path>
                </g>
                <g transform="translate(205.000000, 112.000000)" id="Shape" stroke="#000000" stroke-linecap="round" stroke-linejoin="round" stroke-width="4">
                    <polyline points="43.3 52.9 42.3 68.8 27.8 62.4"></polyline>
                    <path d="M0.5,0.2 L42.3,68.8"></path>
                </g>
                <g transform="translate(0.000000, 150.000000)" id="Shape" stroke="#000000" stroke-linecap="round" stroke-width="4">
                    <path d="M108.7,27.3 C92.6,3.5 60.9,-6.7 34.3,5.8 C4.9,19.7 -7.7,54.8 6.2,84.2 C20.1,113.6 55.2,126.2 84.6,112.3 C88.8,110.3 92.7,107.8 96.3,105"></path>
                    <polyline stroke-linejoin="round" points="82.9 104.8 97 104.5 91.3 117.5"></polyline>
                </g>
                <ellipse id="Oval" cx="269.1" cy="80.8" rx="78.5" ry="44.7"></ellipse>
                <path d="M203.5,47.7 C217.9,38.4 238.9,32.5 262.4,32.5 C305.7,32.5 340.9,52.5 340.9,77.2 C340.9,101.9 305.8,121.9 262.4,121.9 C253.8,121.9 245.6,121.1 237.9,119.7" id="Shape" stroke="#000000" stroke-width="4" stroke-linecap="round"></path>
                <path d="M128.3,113.4 C129.7,114.5 130.6,116 131.1,117.8 L127.5,117.8 C127.1,116.9 126.6,116.2 125.8,115.6 C125,115.1 124.1,114.8 123,114.8 C122.1,114.8 121.3,115 120.6,115.5 C119.9,115.9 119.3,116.6 118.9,117.4 C118.5,118.2 118.3,119.2 118.3,120.3 C118.3,121.4 118.5,122.4 118.9,123.2 C119.3,124 119.9,124.7 120.6,125.1 C121.3,125.5 122.1,125.8 123,125.8 C124.1,125.8 125,125.5 125.8,125 C126.6,124.5 127.1,123.8 127.5,122.8 L131.1,122.8 C130.7,124.7 129.7,126.2 128.3,127.2 C126.9,128.3 125.2,128.8 123,128.8 C121.4,128.8 120,128.4 118.7,127.7 C117.5,127 116.5,126 115.8,124.6 C115.1,123.3 114.8,121.8 114.8,120.1 C114.8,118.4 115.1,116.9 115.8,115.6 C116.5,114.3 117.4,113.3 118.7,112.5 C119.9,111.8 121.4,111.4 123,111.4 C125.2,111.8 127,112.3 128.3,113.4 Z" id="Shape" fill="#000000" fill-rule="nonzero"></path>
                <path d="M44.3,203 C45.7,204.1 46.6,205.6 47.1,207.4 L43.5,207.4 C43.1,206.5 42.6,205.8 41.8,205.2 C41,204.7 40.1,204.4 39,204.4 C38.1,204.4 37.3,204.6 36.6,205.1 C35.9,205.5 35.3,206.2 34.9,207 C34.5,207.8 34.3,208.8 34.3,209.9 C34.3,211 34.5,212 34.9,212.8 C35.3,213.6 35.9,214.3 36.6,214.7 C37.3,215.1 38.1,215.4 39,215.4 C40.1,215.4 41,215.1 41.8,214.6 C42.6,214.1 43.1,213.4 43.5,212.4 L47.1,212.4 C46.7,214.3 45.7,215.8 44.3,216.8 C42.9,217.9 41.2,218.4 39,218.4 C37.4,218.4 36,218 34.7,217.3 C33.5,216.6 32.5,215.6 31.8,214.2 C31.1,212.9 30.8,211.4 30.8,209.7 C30.8,208 31.1,206.5 31.8,205.2 C32.5,203.9 33.4,202.9 34.7,202.1 C35.9,201.4 37.4,201 39,201 C41.2,201.4 43,201.9 44.3,203 Z" id="Shape" fill="#000000" fill-rule="nonzero"></path>
                <path d="M193.3,252 C194.7,253.1 195.6,254.6 196.1,256.4 L192.5,256.4 C192.1,255.5 191.6,254.8 190.8,254.2 C190,253.7 189.1,253.4 188,253.4 C187.1,253.4 186.3,253.6 185.6,254.1 C184.9,254.5 184.3,255.2 183.9,256 C183.5,256.8 183.3,257.8 183.3,258.9 C183.3,260 183.5,261 183.9,261.8 C184.3,262.6 184.9,263.3 185.6,263.7 C186.3,264.1 187.1,264.4 188,264.4 C189.1,264.4 190,264.1 190.8,263.6 C191.6,263.1 192.1,262.4 192.5,261.4 L196.1,261.4 C195.7,263.3 194.7,264.8 193.3,265.8 C191.9,266.9 190.2,267.4 188,267.4 C186.4,267.4 185,267 183.7,266.3 C182.5,265.6 181.5,264.6 180.8,263.2 C180.1,261.9 179.8,260.4 179.8,258.7 C179.8,257 180.1,255.5 180.8,254.2 C181.5,252.9 182.4,251.9 183.7,251.1 C184.9,250.4 186.4,250 188,250 C190.1,250.4 191.9,250.9 193.3,252 Z" id="Shape" fill="#000000" fill-rule="nonzero"></path>
                <g transform="translate(100.000000, 72.000000)" id="Shape" stroke="#000000" stroke-linecap="round" stroke-linejoin="round" stroke-width="4">
                    <polyline points="29 0.6 42 9.6 29 18.7"></polyline>
                    <path d="M0.5,9.6 L42,9.6"></path>
                </g>
                <path d="M268.9,1.2 C269.7,1.7 270.3,2.4 270.6,3.3 L270.6,0.5 L274,0.5 L274,13.8 L270.6,13.8 L270.6,11 C270.3,11.9 269.7,12.6 268.9,13.1 C268.1,13.6 267.1,13.9 266,13.9 C264.9,13.9 263.9,13.6 263,13.1 C262.1,12.6 261.4,11.8 260.9,10.7 C260.4,9.7 260.1,8.5 260.1,7.1 C260.1,5.7 260.4,4.5 260.9,3.5 C261.4,2.5 262.1,1.7 263,1.1 C263.9,0.6 264.9,0.3 266,0.3 C267.1,0.4 268.1,0.7 268.9,1.2 Z M264.5,4.4 C263.9,5.1 263.5,6 263.5,7.2 C263.5,8.4 263.8,9.3 264.5,10 C265.1,10.7 266,11 267,11 C268,11 268.9,10.7 269.5,10 C270.2,9.3 270.5,8.4 270.5,7.2 C270.5,6 270.2,5.1 269.5,4.4 C268.8,3.7 268,3.4 267,3.4 C266,3.4 265.1,3.7 264.5,4.4 Z" id="Shape" fill="#000000" fill-rule="nonzero"></path>
                <path d="M274.2,142.6 C275.1,143.1 275.8,143.9 276.3,145 C276.8,146 277.1,147.2 277.1,148.6 C277.1,150 276.8,151.2 276.3,152.2 C275.8,153.2 275.1,154 274.2,154.6 C273.3,155.2 272.3,155.4 271.2,155.4 C270.1,155.4 269.1,155.1 268.3,154.6 C267.5,154.1 266.9,153.3 266.6,152.5 L266.6,155.3 L263.2,155.3 L263.2,137.5 L266.6,137.5 L266.6,144.7 C266.9,143.8 267.5,143.1 268.3,142.6 C269.1,142.1 270,141.8 271.2,141.8 C272.3,141.8 273.3,142.1 274.2,142.6 Z M267.6,145.8 C266.9,146.5 266.6,147.4 266.6,148.6 C266.6,149.8 266.9,150.7 267.6,151.4 C268.3,152.1 269.1,152.4 270.1,152.4 C271.2,152.4 272,152.1 272.6,151.4 C273.2,150.7 273.6,149.8 273.6,148.6 C273.6,147.4 273.3,146.5 272.6,145.8 C271.9,145.1 271.1,144.8 270.1,144.8 C269.1,144.8 268.2,145.1 267.6,145.8 Z" id="Shape" fill="#000000" fill-rule="nonzero"></path>
                <path d="M406.1,204.2 C407,204.7 407.7,205.5 408.2,206.6 C408.7,207.6 409,208.8 409,210.2 C409,211.6 408.7,212.8 408.2,213.8 C407.7,214.8 407,215.6 406.1,216.2 C405.2,216.8 404.2,217 403.1,217 C402,217 401,216.7 400.2,216.2 C399.4,215.7 398.8,214.9 398.5,214.1 L398.5,216.9 L395.1,216.9 L395.1,199.1 L398.5,199.1 L398.5,206.3 C398.8,205.4 399.4,204.7 400.2,204.2 C401,203.7 401.9,203.4 403.1,203.4 C404.2,203.4 405.2,203.7 406.1,204.2 Z M399.5,207.4 C398.8,208.1 398.5,209 398.5,210.2 C398.5,211.4 398.8,212.3 399.5,213 C400.2,213.7 401,214 402,214 C403.1,214 403.9,213.7 404.5,213 C405.1,212.3 405.5,211.4 405.5,210.2 C405.5,209 405.2,208.1 404.5,207.4 C403.8,206.7 403,206.4 402,206.4 C401,206.4 400.2,206.7 399.5,207.4 Z" id="Shape" fill="#000000" fill-rule="nonzero"></path>
            </g>
        </g>
    </g>
</svg>
